X: 129
T:Tuttle's Reel
T:Mills are Grinding
T:Customs Gap
R:Reel
D:Kevin Burke: Up Close.
Z:id:hn-reel-87
M:C
L:1/8
Q:1/4=200
K:DDor
A,DDE FEFG|A2Gc Ad~d2|A,DDE F2dB|cAGE FDEC|
A,DDE FEFG|A2Gc Ad~d2|fded dcAB|[1 cAGE FDEC:|[2 cAGE EDD2||
|:d2dB c2cG|AddB cAGA|d2dB cdcA|GEcE EDD2|
d2dB c2cG|AddB c2de|fded dcAB|[1 cAGE EDD2:|[2 cAGE FDEC|]
